X:1
T:LORD, You Have Lavished on Your Land
T:Tune: William Hayes, 1774 Text under copyright; for copyrighted material see Psalter Hymnal 85
T:88 88 88 NEW 113th www.hymnary.org/text/lord_you_have_lavished_on_your_land
T:LORD, You Have Lavished on Your Land
T:This music is in the public domain. You may freely use this score for personal and congregational worship. If you reproduce the score, please credit Hymnary.org as the source. 
T:This music is in the public domain. You may freely use this score for personal and congregational worship. If you reproduce the score, please credit Hymnary.org as the source. 
Z:This music is in the public domain. You may freely use this score for personal and congregational worship. If you reproduce the score, please credit Hymnary.org as the source.
%%score ( 1 2 ) ( 3 4 )
L:1/8
M:3/4
K:G
V:1 treble nm="SOPRANO ALTO" snm="S. A."
V:2 treble 
V:3 bass nm="TENOR BASS" snm="T. B."
V:4 bass 
V:1
 G2 | (F3 E) D2 | (G2 A2) B2 | (B2 A2) G2 | (G2 F2) F2 | (G2 A2) B2 | (A>B c2) B2 | (A2 G2) F2 | %8
 G4 B2 | A4 B2 | G4 F2 | (G2 F2) E2 | B4 | F2 | G4 G2 | G4 G>A | (B2 A2) G2 | F4 F2 | (F2 G2) A2 | %19
 D4 E2 |1 (=F2 E2) D2 | E4 A2 | F4 G2 | (E2 c2) B2 | (A2 G2) F2 | G4 x2 |] %26
V:2
 B,2 | C4 A,2 | (D2 F2) G2 | E4 E2 | D4 D2 | (D2 C2) B,2 | D4 G2 | E4 D2 | D4 D2 | D4 B,2 | %10
 B,4 ^D2 | (E2 B,2) E2 | ^D4 | ^D2 | E4 E2 | D4 E>F | (G2 D3) ^C | D4 D2 | D4 D2 | D4 C2 |1 %20
 C4 B,2 | C4 E2 | D4 D2 | (E2 F2) G2 | (E2 D2) D2 | D4 x2 |] %26
V:3
 D,2 | D,4 F,2 | (G,2 C2) D2 | C4 C2 | A,4 A,2 | (G,2 F,2) G,2 | A,4 D2 | (C2 B,2) A,2 | B,4 G,2 | %9
 A,4 F,2 | G,4 B,2 | B,4 B,A, | F,4 | B,2 | B,4 C2 | D4 C2 | D4 G,2 | A,4 A,2 | A,4 F,2 | G,4 C2 |1 %20
 A,4 B,2 | G,4 A,2 | A,4 D2 | C4 D2 | (C2 B,2) A,2 | B,4 x2 |] %26
V:4
 G,,2 | A,,4 C,2 | (B,,2 A,,2) G,,2 | C,4 A,,2 | D,4 C,2 | (B,,2 A,,2) G,,2 | F,,4 G,,2 | C,4 D,2 | %8
 G,,4 G,2 | F,4 ^D,2 | E,4 B,,2 | (E,2 =D,2) C,2 | B,,4 | B,,2 | E,4 C,2 | (B,,2 B,2) A,2 | %16
 (G,2 F,2) E,2 | D,4 D,2 | D,4 C,2 | B,,4 C,2 |1 D,4 G,,2 | C,4 C,2 | C,4 B,,2 | (B,,2 A,,2) G,,2 | %24
 (C,2 D,2) D,2 | G,,4 x2 |] %26

